!!!SOCIAL_FUNCTION:	dance songs
!!!PDT:	1943
!!!OTL: No_48_Dance_Song_of_the_Thompson_River_Indians_(a).krn
!!!REG: British Columbia
**kern	**kern
*staff2	*staff1
=1-	=1-
=	=
*clefF4	*clefF4
*k[f#c#]	*k[f#c#]
*M2/4	*M2/4
8GG/L	4e\
8GG/J	.
8GG/L	16d\LL
.	16e\
8GG/J	16f#\
.	16e\JJ
=2	=2
8GG/L	4e\
8GG/J	.
4r	4A\
=3	=3
2r	8F#\L
.	[8A^\J
.	8A\L]
.	8B\J
=4||	=4||
*M3/8	*M3/8
4.r	8d\L
.	8B\
.	8A\J
=5||	=5||
*M2/4	*M2/4
2r	4d\
.	4d\
=6	=6
2r	4A\
.	8F#\
.	8r
=7	=7
2r	4A\
.	4B\
=8||	=8||
*M3/8	*M3/8
4.r	8d\L
.	8B\
.	16A\Jk
.	16r
=9||	=9||
*M3/4	*M3/4
2.r	12d\L
.	12B\
.	12d\J
.	4B\
.	4A\
=10||	=10||
*M2/4	*M2/4
2r	16F#\
.	16r
.	[8A\
.	8A\L]
.	16B\Jk
.	16r
=11	=11
2r	4e\
.	16d#\LL
.	16e\
.	16f#\
.	16e\JJ
=12	=12
2r	4e\
.	4A\
=13	=13
2r	16F#\
.	16r
.	8A\
.	8A\L
.	16B\Jk
.	16r
=14||	=14||
*M3/8	*M3/8
4.r	8d\L
.	8B\
.	16A\L
.	16A\JJ
=15||	=15||
*M2/4	*M2/4
2r	8.d\L
.	16d\Jk
.	4d\
=16	=16
2r	4A\
.	8F#\
.	8r
=17	=17
2r	4A\
.	4B\
=18||	=18||
*M3/8	*M3/8
4.r	8d\L
.	8B\
.	16A\Jk
.	16r
=19||	=19||
*M3/4	*M3/4
2.r	12d\L
.	12B\
.	12d\J
.	4B\
.	4A\
=20||	=20||
*M2/4	*M2/4
2r	16F#\
.	16r
.	[8A\
.	8A\L]
.	16B\Jk
.	16r
==	==
*-	*-
